icons/src/scalable/default/devices/modem-symbolic.svg

<?xml version="1.0" encoding="UTF-8" standalone="no"?>
<svg
   xmlns:dc="http://purl.org/dc/elements/1.1/"
   xmlns:cc="http://creativecommons.org/ns#"
   xmlns:rdf="http://www.w3.org/1999/02/22-rdf-syntax-ns#"
   xmlns:svg="http://www.w3.org/2000/svg"
   xmlns="http://www.w3.org/2000/svg"
   xmlns:sodipodi="http://sodipodi.sourceforge.net/DTD/sodipodi-0.dtd"
   xmlns:inkscape="http://www.inkscape.org/namespaces/inkscape"
   height="16"
   width="16"
   version="1.1"
   id="svg1199"
   sodipodi:docname="modem-symbolic.svg"
   inkscape:version="1.0.2 (e86c870879, 2021-01-15)">
  <metadata
     id="metadata1205">
    <rdf:RDF>
      <cc:Work
         rdf:about="">
        <dc:format>image/svg+xml</dc:format>
        <dc:type
           rdf:resource="http://purl.org/dc/dcmitype/StillImage" />
        <dc:title />
      </cc:Work>
    </rdf:RDF>
  </metadata>
  <defs
     id="defs1203" />
  <sodipodi:namedview
     pagecolor="#ffffff"
     bordercolor="#666666"
     borderopacity="1"
     objecttolerance="10"
     gridtolerance="10"
     guidetolerance="10"
     inkscape:pageopacity="0"
     inkscape:pageshadow="2"
     inkscape:window-width="1366"
     inkscape:window-height="704"
     id="namedview1201"
     showgrid="true"
     inkscape:zoom="32"
     inkscape:cx="12.284091"
     inkscape:cy="7.1763931"
     inkscape:window-x="0"
     inkscape:window-y="0"
     inkscape:window-maximized="1"
     inkscape:current-layer="svg1199"
     inkscape:document-rotation="0">
    <inkscape:grid
       type="xygrid"
       id="grid2431" />
  </sodipodi:namedview>
  <g
     id="g21">
    <g
       id="g1012"
       style="opacity:0.503452"
       transform="translate(0,-4.9999967)" />
    <g
       id="g22">
      <path
         id="path869"
         style="line-height:normal;text-indent:0;text-align:start;text-decoration:none;text-decoration-line:none;text-decoration-style:solid;text-decoration-color:#000000;text-transform:none;white-space:normal;isolation:auto;mix-blend-mode:normal;solid-color:#000000;solid-opacity:1;fill:#bebebe;stroke-width:1.00182;marker:none"
         d="M 4,9 C 3.3396046,8.9995179 2.8165202,9.05961 2.3769247,9.224609 1.9534536,9.375986 1.598203,9.673147 1.3752453,10.0625 1.0830324,10.588814 1.0323987,11.250337 1.014562,12 1.032397,12.749663 1.08304,13.411186 1.3752453,13.9375 1.598203,14.326853 1.9534526,14.624014 2.3769247,14.775391 2.8165202,14.940391 3.3396046,14.999518 4,15 l 8.029124,0.0059 c 0.659392,4.82e-4 1.183479,-0.06061 1.623075,-0.224609 0.423469,-0.151378 0.778722,-0.448539 1.00168,-0.837891 0.292096,-0.52819 0.342767,-1.19188 0.360683,-1.9434 -0.01831,-0.74631 -0.07006,-1.406226 -0.360683,-1.931641 -0.222958,-0.389352 -0.57821,-0.686513 -1.00168,-0.83789 -0.439595,-0.16404 -0.963683,-0.224128 -1.623075,-0.22461 z m 0,1 8.029124,0.0059 c 0.594155,4.34e-4 1.009286,0.06316 1.270232,0.160157 0.260947,0.098 0.37497,0.203718 0.476337,0.386718 0.13748,0.248193 0.189862,0.783783 0.221508,1.447266 -0.03146,0.669403 -0.08327,1.209421 -0.221508,1.458984 -0.101367,0.183 -0.21539,0.288719 -0.476337,0.386719 -0.260946,0.097 -0.676077,0.16059 -1.270232,0.160156 L 4,14 C 3.4058449,13.999566 2.9907141,13.93684 2.7297675,13.839844 2.468821,13.742844 2.3537948,13.637125 2.2534307,13.453125 2.1155707,13.204274 2.0634777,12.666437 2.0319233,12 2.0634773,11.33356 2.1155763,10.795754 2.2534307,10.546875 2.3537948,10.362875 2.468821,10.257156 2.7297675,10.160156 2.9907141,10.063156 3.4058449,9.999566 4,10 Z" />
      <rect
         style="opacity:1;fill:#bebebe;stroke:none;stroke-width:2;stroke-linecap:round;stroke-linejoin:round;stroke-miterlimit:4;stroke-dasharray:none"
         id="rect1035-9"
         width="2"
         height="1"
         x="11.014562"
         y="12.000001" />
      <rect
         style="fill:#bebebe;fill-rule:evenodd;stroke-width:0.730662"
         id="rect23"
         width="1"
         height="6"
         x="11"
         y="4" />
      <circle
         style="fill:#bebebe;fill-rule:evenodd;stroke-width:0.689699"
         id="path25"
         cx="11.440598"
         cy="4.4115105"
         r="1.5" />
    </g>
    <path
       id="path2"
       style="stroke-width:0.814746;marker:none;fill:#bebebe;fill-opacity:1"
       d="M 6.6671185,0 A 6.0902265,6.0902265 0 0 0 4.8800091,4.3203125 c 0,1.5643123 0.5951361,3.1302924 1.7871094,4.3222656 L 7.2667279,8.0429687 a 5.2551118,5.2551118 0 0 1 0,-7.4414062 z M 8.4132122,1.6816406 A 3.7201303,3.7201303 0 0 0 7.3233685,4.3203125 3.7201303,3.7201303 0 0 0 8.4132122,6.9609375 L 9.0147747,6.3613281 a 2.8784977,2.8784977 0 0 1 0,-4.0820312 z" />
  </g>
</svg>

<svg version="1.1" viewBox="0 0 16 16" xmlns="http://www.w3.org/2000/svg">
 <g fill="#bebebe">
  <path d="m4 9c-0.6604-4.821e-4 -1.1835 0.05961-1.6231 0.22461-0.42347 0.15138-0.77872 0.44854-1.0017 0.83789-0.29221 0.52631-0.34285 1.1878-0.36068 1.9375 0.017835 0.74966 0.068478 1.4112 0.36068 1.9375 0.22296 0.38935 0.57821 0.68651 1.0017 0.83789 0.4396 0.165 0.96268 0.22413 1.6231 0.22461l8.0291 0.0059c0.65939 4.82e-4 1.1835-0.06061 1.6231-0.22461 0.42347-0.15138 0.77872-0.44854 1.0017-0.83789 0.2921-0.52819 0.34277-1.1919 0.36068-1.9434-0.01831-0.74631-0.07006-1.4062-0.36068-1.9316-0.22296-0.38935-0.57821-0.68651-1.0017-0.83789-0.4396-0.16404-0.96368-0.22413-1.6231-0.22461zm0 1 8.0291 0.0059c0.59416 4.34e-4 1.0093 0.06316 1.2702 0.16016 0.26095 0.098 0.37497 0.20372 0.47634 0.38672 0.13748 0.24819 0.18986 0.78378 0.22151 1.4473-0.03146 0.6694-0.08327 1.2094-0.22151 1.459-0.10137 0.183-0.21539 0.28872-0.47634 0.38672-0.26095 0.097-0.67608 0.16059-1.2702 0.16016l-8.0291-0.0059c-0.59416-4.34e-4 -1.0093-0.06316-1.2702-0.16016-0.26095-0.097-0.37597-0.20272-0.47634-0.38672-0.13786-0.24885-0.18995-0.78669-0.22151-1.4531 0.031554-0.66644 0.083653-1.2042 0.22151-1.4531 0.10036-0.184 0.21539-0.28972 0.47634-0.38672 0.26095-0.097 0.67608-0.16059 1.2702-0.16016z" solid-color="#000000" stroke-width="1.0018" style="isolation:auto;mix-blend-mode:normal;text-decoration-color:#000000;text-decoration-line:none;text-decoration-style:solid;text-indent:0;text-transform:none;white-space:normal"/>
  <rect x="11.015" y="12" width="2" height="1"/>
  <rect x="11" y="4" width="1" height="6" fill-rule="evenodd" stroke-width=".73066"/>
  <circle cx="11.441" cy="4.4115" r="1.5" fill-rule="evenodd" stroke-width=".6897"/>
  <path d="m6.6671 0a6.0902 6.0902 0 0 0-1.7871 4.3203c0 1.5643 0.59514 3.1303 1.7871 4.3223l0.59961-0.59961a5.2551 5.2551 0 0 1 0-7.4414zm1.7461 1.6816a3.7201 3.7201 0 0 0-1.0898 2.6387 3.7201 3.7201 0 0 0 1.0898 2.6406l0.60156-0.59961a2.8785 2.8785 0 0 1 0-4.082z" stroke-width=".81475"/>
 </g>
</svg>
